src/lib/packages/icons/src/assets/filled/credit-card-times.svg

<svg xmlns="http://www.w3.org/2000/svg" width="24" height="24" fill="none"><path fill="currentColor" d="M18 13c-2.21 0-4 1.79-4 4s1.79 4 4 4 4-1.79 4-4-1.79-4-4-4Zm1.35 4.65c.2.19.2.51 0 .7a.47.47 0 0 1-.35.15.47.47 0 0 1-.35-.15L18 17.7l-.65.65a.47.47 0 0 1-.35.15.47.47 0 0 1-.35-.15c-.2-.19-.2-.51 0-.7l.65-.65-.65-.65c-.2-.19-.2-.51 0-.7.19-.2.51-.2.7 0l.65.65.65-.65c.19-.2.51-.2.7 0 .2.19.2.51 0 .7l-.65.65.65.65ZM2 9.75V15c0 2 1 3 3 3h7.23c.17 0 .31-.14.31-.31A5.51 5.51 0 0 1 18 11.5c.55 0 1.07.08 1.57.23.04.01.08.02.12.02.17 0 .31-.13.31-.3v-1.7H2Zm7 5H6c-.41 0-.75-.34-.75-.75s.34-.75.75-.75h3c.41 0 .75.34.75.75s-.34.75-.75.75ZM17 4H5C3 4 2 5 2 7v1.25h18V7c0-2-1-3-3-3Z"/></svg>

<svg width="24" height="24" viewBox="0 0 24 24" fill="none" xmlns="http://www.w3.org/2000/svg">
<path d="M18 13C15.79 13 14 14.79 14 17C14 19.21 15.79 21 18 21C20.21 21 22 19.21 22 17C22 14.79 20.21 13 18 13ZM19.35 17.65C19.55 17.84 19.55 18.16 19.35 18.35C19.26 18.45 19.13 18.5 19 18.5C18.87 18.5 18.74 18.45 18.65 18.35L18 17.7L17.35 18.35C17.26 18.45 17.13 18.5 17 18.5C16.87 18.5 16.74 18.45 16.65 18.35C16.45 18.16 16.45 17.84 16.65 17.65L17.3 17L16.65 16.35C16.45 16.16 16.45 15.84 16.65 15.65C16.84 15.45 17.16 15.45 17.35 15.65L18 16.3L18.65 15.65C18.84 15.45 19.16 15.45 19.35 15.65C19.55 15.84 19.55 16.16 19.35 16.35L18.7 17L19.35 17.65ZM2 9.75V15C2 17 3 18 5 18H12.23C12.4 18 12.54 17.86 12.54 17.69C12.51 17.46 12.5 17.23 12.5 17C12.5 13.97 14.97 11.5 18 11.5C18.55 11.5 19.07 11.58 19.57 11.73C19.61 11.74 19.65 11.75 19.69 11.75C19.86 11.75 20 11.62 20 11.45V9.75H2ZM9 14.75H6C5.59 14.75 5.25 14.41 5.25 14C5.25 13.59 5.59 13.25 6 13.25H9C9.41 13.25 9.75 13.59 9.75 14C9.75 14.41 9.41 14.75 9 14.75ZM17 4H5C3 4 2 5 2 7V8.25H20V7C20 5 19 4 17 4Z" fill="currentColor"/>
</svg>
